COLOR/action 16/16/selection-lower.svg

<svg height="16" width="16" xmlns="http://www.w3.org/2000/svg"><g fill="#666"><path d="m0 1h8v2h-8z"/><path d="m0 5h8v2h-8z"/><path d="m0 13h8v2h-8z"/></g><path d="m0 9h16v2h-16z" fill="#e95420"/><path d="m0 1v.5h8v-.5zm0 4v.5h8v-.5zm0 4v.5h16v-.5zm0 4v.5h8v-.5z" fill="#fff" opacity=".3"/><path d="m0 2.5v.5h8v-.5zm0 4v.5h8v-.5zm0 4v.5h16v-.5zm0 4v.5h8v-.5z" opacity=".2"/><path d="m9 5.9999996 3.497082 4.0000154 3.502918-4.0000154h-2v-5.0000001h-3v5.0000001z" display="block" fill="#1a7fd4"/><path d="m9 6 3.498047 4 3.501953-4h-.4375l-3.064453 3.5-3.060547-3.5z" opacity=".2"/><path d="m11 1v.5h3v-.5zm-2 5 .4375.5h1.5625v-.5zm5 0v.5h1.5625l.4375-.5z" fill="#fff" opacity=".3"/></svg>

<?xml version="1.0" encoding="UTF-8" standalone="no"?>
<svg
   xmlns:dc="http://purl.org/dc/elements/1.1/"
   xmlns:cc="http://creativecommons.org/ns#"
   xmlns:rdf="http://www.w3.org/1999/02/22-rdf-syntax-ns#"
   xmlns:svg="http://www.w3.org/2000/svg"
   xmlns="http://www.w3.org/2000/svg"
   xmlns:sodipodi="http://sodipodi.sourceforge.net/DTD/sodipodi-0.dtd"
   xmlns:inkscape="http://www.inkscape.org/namespaces/inkscape"
   height="16"
   width="16"
   version="1.1"
   id="svg14"
   sodipodi:docname="selection-lower.svg"
   inkscape:version="0.92.4 (5da689c313, 2019-01-14)">
  <metadata
     id="metadata20">
    <rdf:RDF>
      <cc:Work
         rdf:about="">
        <dc:format>image/svg+xml</dc:format>
        <dc:type
           rdf:resource="http://purl.org/dc/dcmitype/StillImage" />
      </cc:Work>
    </rdf:RDF>
  </metadata>
  <defs
     id="defs18" />
  <sodipodi:namedview
     pagecolor="#ffffff"
     bordercolor="#666666"
     borderopacity="1"
     objecttolerance="10"
     gridtolerance="10"
     guidetolerance="10"
     inkscape:pageopacity="0"
     inkscape:pageshadow="2"
     inkscape:window-width="1920"
     inkscape:window-height="1016"
     id="namedview16"
     showgrid="false"
     inkscape:zoom="14.75"
     inkscape:cx="8"
     inkscape:cy="8"
     inkscape:window-x="0"
     inkscape:window-y="27"
     inkscape:window-maximized="1"
     inkscape:current-layer="svg14" />
  <g
     fill="#666"
     id="g8">
    <path
       d="m0 1h8v2h-8z"
       id="path2" />
    <path
       d="m0 5h8v2h-8z"
       id="path4" />
    <path
       d="m0 13h8v2h-8z"
       id="path6" />
  </g>
  <path
     d="m0 9h16v2h-16z"
     fill="#e95420"
     id="path10" />
  <path
     d="M 0 1 L 0 1.5 L 8 1.5 L 8 1 L 0 1 z M 0 5 L 0 5.5 L 8 5.5 L 8 5 L 0 5 z M 0 9 L 0 9.5 L 16 9.5 L 16 9 L 0 9 z M 0 13 L 0 13.5 L 8 13.5 L 8 13 L 0 13 z "
     id="path839"
     style="fill:#ffffff;fill-opacity:1;opacity:0.3" />
  <path
     d="M 0 2.5 L 0 3 L 8 3 L 8 2.5 L 0 2.5 z M 0 6.5 L 0 7 L 8 7 L 8 6.5 L 0 6.5 z M 0 10.5 L 0 11 L 16 11 L 16 10.5 L 0 10.5 z M 0 14.5 L 0 15 L 8 15 L 8 14.5 L 0 14.5 z "
     id="path865"
     style="fill:#000000;fill-opacity:1;opacity:0.2" />
  <path
     d="m9 5.9999996 3.497082 4.0000154 3.502918-4.0000154h-2v-5.0000001h-3v5.0000001z"
     display="block"
     id="path12"
     fill="#1a7fd4" />
  <path
     d="M 9 6 L 12.498047 10 L 16 6 L 15.5625 6 L 12.498047 9.5 L 9.4375 6 L 9 6 z "
     id="path871"
     style="opacity:0.2" />
  <path
     d="M 11 1 L 11 1.5 L 14 1.5 L 14 1 L 11 1 z M 9 6 L 9.4375 6.5 L 11 6.5 L 11 6 L 9 6 z M 14 6 L 14 6.5 L 15.5625 6.5 L 16 6 L 14 6 z "
     id="path873"
     style="fill:#ffffff;fill-opacity:1;opacity:0.3" />
</svg>
